assets/images/logo.svg

<svg width="22" height="22" viewBox="0 0 22 22" fill="none" xmlns="http://www.w3.org/2000/svg">
<rect y="0.448719" width="21.1026" height="21.1026" rx="4.30665" fill="#FB3667"/>
<g clip-path="url(#clip0_38_102)">
<path d="M18.917 4.41182L12.555 15.4398L11.055 18.0465C11.0118 18.121 10.9497 18.1829 10.8751 18.2258C10.8004 18.2688 10.7158 18.2915 10.6297 18.2915C10.5435 18.2915 10.4589 18.2688 10.3843 18.2258C10.3096 18.1829 10.2476 18.121 10.2043 18.0465L8.76436 15.5544L7.44868 13.2777L2.33594 4.41182C3.50888 4.41139 4.66118 4.72035 5.67657 5.30752C6.69167 5.89387 7.53454 6.7371 8.12045 7.75246L9.40613 9.98098C9.53673 10.2063 9.72424 10.3933 9.94989 10.5234C10.1755 10.6534 10.4314 10.7218 10.6918 10.7218C10.9522 10.7218 11.2081 10.6534 11.4337 10.5234C11.6594 10.3933 11.8469 10.2063 11.9775 9.98098L13.3296 7.63782C13.8956 6.65681 14.71 5.84216 15.6909 5.27585C16.6717 4.70954 17.7844 4.41154 18.917 4.41182Z" fill="white" stroke="white" stroke-width="0.0535702" stroke-miterlimit="10"/>
<path d="M11.8586 10.1438C11.6036 10.6474 9.05685 15.5276 7.44868 13.2777L2.33594 4.41182C3.50888 4.41139 4.66118 4.72035 5.67657 5.30752C6.69167 5.89387 7.53454 6.73711 8.12045 7.75246L9.40613 9.98098C9.9354 10.8981 11.2211 10.9206 11.8586 10.1438Z" fill="#FFC1D0"/>
</g>
<defs>
<clipPath id="clip0_38_102">
<rect width="16.6743" height="13.9336" fill="white" transform="translate(2.28125 4.38504)"/>
</clipPath>
</defs>
</svg>

<svg width="22" height="22" fill="none" xmlns="http://www.w3.org/2000/svg"><rect y=".449" width="21.103" height="21.103" rx="4.307" fill="#FB3667"/><g clip-path="url(#a)"><path d="M18.917 4.412 12.555 15.44l-1.5 2.607a.491.491 0 0 1-.85 0l-1.44-2.493-1.316-2.276-5.113-8.866a6.678 6.678 0 0 1 5.785 3.34l1.285 2.229a1.487 1.487 0 0 0 2.571 0l1.353-2.343a6.448 6.448 0 0 1 5.587-3.226Z" fill="#fff" stroke="#fff" stroke-width=".054" stroke-miterlimit="10"/><path d="M11.859 10.144c-.255.503-2.802 5.384-4.41 3.134L2.336 4.412a6.678 6.678 0 0 1 5.785 3.34l1.285 2.229c.53.917 1.815.94 2.453.163Z" fill="#FFC1D0"/></g><defs><clipPath id="a"><path fill="#fff" transform="translate(2.281 4.385)" d="M0 0h16.674v13.934H0z"/></clipPath></defs></svg>
